X: 100171
M: C|
L: 1/8
K: F
u(cB) |\
|: u(ab) |\
c'afc bgec | afcA gecB | ABcd efga | bag^f gab=b |\
c'afc bgec | afcA gecB | ABcd efge | fafe f2 :|


